X:1
T:Title
%%score { 1 | 2 | 3 }
L:1/8
Q:1/4=120
M:2/2
K:G
V:1 treble nm="MusicXML Part"
V:2 treble 
V:3 treble 
V:1
"^1""^st""^Andante" G2 | %1
w: The|
"^The following alludes to a Notion receiv'd in Poland & other Countries, that some Persons, after they are\n dead & buried, have a Power of sucking the Blood of others 'till they dye; a consumptive Person is\n therefore said to be sucked by some Vampire: for so they call those who are supposed to have this Faculty." B2"^The Thirsty Vampires" G2"^William Hayes (1708-1777)" d2 B2 | %2
w: thirst- y Vam- pires,|
 e2{gfe} f2 g3 f/e/ | d2{ef} g2{/g} f2 z2 |[M:2/2] z4 z2 e2 | d2{ef} g2 f4 | z4 z2 gB | %7
w: some be- lieve, their *|Graves can pierce|and|Cof- fins leave,|to *|
 ^c2 d2 e2 dc | d2 D2 d4- | d4 c4 | c4 B4 | z2 B,2 B4- | B4 A2 G2 | (F2 G2 A2)"^2" GF |"^d" G6 :| %15
w: suck poor Mor- tals *|dry, to suck|* poor|Mor- tals,|to suck|* poor *|Mor- * * tals *|dry.|
V:2
"^2""^d" z2 | z2 G2 B2 G2 | c2 A2 B2 Ac | B4 z2 AB |[M:2/2]{/d} c2 BA B2 z2 | z4 z2 AB | %6
w: |If I've the|Luck to drink when *|dead, to *|drink when * dead|to *|
 c2 BA B2 G2 | (G2 F2 G2) A2 | D6 D2 | E2 FG A2 Bc | D2 EF G4 | z2 G2 B2 G2 | z2 E2 F2 G2 | %13
w: drink when * dead, to|drink * * when|dead, my|Liq- uor * shan't be *|Blood tho' * red,|my Liq- uor,|my Liq- uor|
 D2 G2 C2"^3" D2 |"^d" G6 :| %15
w: shan't be Blood tho'|red.|
V:3
"^3""^d" B2 | dc BA G2 g2 | ge dc d3 D | G4 (D3 G) |[M:2/2] A2 GF G2 c2 | B2 G2 d2 z d | %6
w: The|Juice * of * Grapes best|suits * with * me, to|some huge *|Cask, to * some huge|Cask of Wine I'll|
 e2 dc d2{/c} B2 | A3 A B2 A2 |{G} F6 F2 | G2 E2 A4 | F2 D2 (G>AB>c) | d6 d2 | %12
w: be, I'll * be a|Vam- pire when I|dye, to|some * huge|Cask of Wine, * * *|* I'll|
{d} c6"^© 2009 by CPDL. \nThis edition can be fully distributed, duplicated, performed, and recorded. \nEdited by Christoph Lahme." B2 | %13
w: be a|
"^Version 1.0 (2009/10/20)" A2 B2 c2"^I" B"^1""^I""^I"A |"^.""^st" G6 :| %15
w: Vam- pire when I *|dye.|

